src/main/resources/icons/AllIcons/nodes/macOS.svg

<svg width="16" height="16" viewBox="0 0 16 16" fill="none" xmlns="http://www.w3.org/2000/svg">
<path d="M13.6454 11.9103C13.4337 12.3994 13.1831 12.8496 12.8927 13.2635C12.4969 13.8278 12.1729 14.2185 11.9231 14.4354C11.536 14.7914 11.1212 14.9737 10.677 14.9841C10.3581 14.9841 9.97356 14.8934 9.52592 14.7093C9.07681 14.5261 8.66408 14.4354 8.2867 14.4354C7.89091 14.4354 7.46643 14.5261 7.01239 14.7093C6.55767 14.8934 6.19134 14.9893 5.91127 14.9988C5.48532 15.0169 5.06075 14.8294 4.63696 14.4354C4.36647 14.1994 4.02815 13.795 3.62285 13.2221C3.188 12.6102 2.8305 11.9007 2.55042 11.0919C2.25046 10.2182 2.1001 9.37218 2.1001 8.55312C2.1001 7.61489 2.30283 6.80568 2.70891 6.12756C3.02804 5.58288 3.45261 5.15321 3.98399 4.83779C4.51537 4.52236 5.08953 4.36163 5.70784 4.35134C6.04616 4.35134 6.48983 4.456 7.04117 4.66167C7.59096 4.86803 7.94397 4.97268 8.09874 4.97268C8.21446 4.97268 8.60662 4.85032 9.27142 4.60636C9.90011 4.38012 10.4307 4.28645 10.8654 4.32335C12.0433 4.4184 12.9282 4.88272 13.5167 5.71924C12.4632 6.35752 11.9421 7.2515 11.9525 8.39834C11.962 9.29164 12.2861 10.035 12.923 10.6252C13.2116 10.8992 13.5339 11.1109 13.8926 11.2613C13.8148 11.4868 13.7327 11.7028 13.6454 11.9103V11.9103ZM10.944 1.28008C10.944 1.98024 10.6882 2.63398 10.1784 3.23907C9.56308 3.95841 8.81886 4.37407 8.01181 4.30848C8.00152 4.22448 7.99556 4.13608 7.99556 4.04318C7.99556 3.37103 8.28817 2.65169 8.8078 2.06354C9.06722 1.76574 9.39716 1.51813 9.79727 1.32061C10.1965 1.12603 10.5742 1.01843 10.9293 1C10.9397 1.0936 10.944 1.18721 10.944 1.28007V1.28008Z" fill="#ABB6BD"/>
</svg>

<svg width="16" height="16" viewBox="0 0 16 16" fill="none" xmlns="http://www.w3.org/2000/svg"><rect id="frame" width="16" height="16" fill="none"/><path d="M13.645 11.91c-.211.49-.462.94-.752 1.354-.396.564-.72.955-.97 1.171-.387.356-.802.539-1.246.55-.319 0-.703-.092-1.151-.276-.45-.183-.862-.274-1.24-.274-.395 0-.82.091-1.274.274-.454.184-.82.28-1.1.29-.427.018-.851-.17-1.275-.564-.27-.236-.609-.64-1.014-1.213a8.394 8.394 0 0 1-1.073-2.13c-.3-.874-.45-1.72-.45-2.539 0-.938.203-1.747.609-2.425.319-.545.744-.975 1.275-1.29a3.43 3.43 0 0 1 1.724-.487c.338 0 .782.105 1.333.31.55.207.903.312 1.058.312.115 0 .508-.123 1.172-.367.63-.226 1.16-.32 1.594-.283 1.178.095 2.063.56 2.652 1.396-1.054.639-1.575 1.532-1.564 2.68.009.893.333 1.636.97 2.226.289.274.61.486.97.636-.078.226-.16.442-.248.65zM10.944 1.28c0 .7-.256 1.354-.766 1.96-.615.718-1.36 1.134-2.166 1.068a2.178 2.178 0 0 1-.016-.265c0-.672.292-1.391.812-1.98.26-.297.59-.545.99-.742.399-.195.776-.303 1.131-.321.01.094.015.187.015.28z" fill="#ABB6BD"/></svg>
